cylinder-off.svg

<svg fill="currentColor" viewBox="0 0 24 24"><path d="M7.64 4.44 6.03 2.83C8.15 2.1 10.82 2 12 2c2.11 0 9 .29 9 4v11.8l-2.94-2.94c.33.11.64.24.94.39v-6.5c-1.72.88-4.18 1.14-5.83 1.22L11.18 8H12c3.87 0 7-.89 7-2s-3.13-2-7-2c-1.65 0-3.16.17-4.36.44m14.47 17.02-1.27 1.27-1.93-1.93C16.7 21.87 13.36 22 12 22c-2.11 0-9-.29-9-4V6c0-.34.08-.64.18-.93L1.11 3l1.28-1.27zM5 15.25C7.2 14.13 10.62 14 12 14h.11L7.73 9.62C6.76 9.43 5.8 9.15 5 8.75zm12.39 4.03-3.18-3.18c-.71-.06-1.43-.1-2.21-.1-3.87 0-7 .9-7 2s3.13 2 7 2c2.17 0 4.1-.28 5.39-.72"/></svg>

<svg  viewBox="0 0 24 24" fill="currentColor"><path  d="M7.64 4.44L6.03 2.83C8.15 2.1 10.82 2 12 2C14.11 2 21 2.29 21 6V17.8L18.06 14.86C18.39 14.97 18.7 15.1 19 15.25V8.75C17.28 9.63 14.82 9.89 13.17 9.97L11.18 8C11.45 8 11.72 8 12 8C15.87 8 19 7.11 19 6S15.87 4 12 4C10.35 4 8.84 4.17 7.64 4.44M22.11 21.46L20.84 22.73L18.91 20.8C16.7 21.87 13.36 22 12 22C9.89 22 3 21.71 3 18V6C3 5.66 3.08 5.36 3.18 5.07L1.11 3L2.39 1.73L22.11 21.46M5 15.25C7.2 14.13 10.62 14 12 14L12.11 14L7.73 9.62C6.76 9.43 5.8 9.15 5 8.75V15.25M17.39 19.28L14.21 16.1C13.5 16.04 12.78 16 12 16C8.13 16 5 16.9 5 18S8.13 20 12 20C14.17 20 16.1 19.72 17.39 19.28Z"/></svg>
